src/icons/chevron-right-double.svg

<svg xmlns="http://www.w3.org/2000/svg" width="512" height="512" viewBox="0 0 512 512">
    <path d="M217.7 249.4L98.2 125.1c-3-3.1-2.9-8.1.1-11.3l21.4-21.9c3.1-3.1 8.1-3.2 11.1-.1l145.9 152c1.6 1.6 2.3 3.7 2.1 5.8.1 2.1-.6 4.2-2.1 5.8L130.8 407.2c-3 3.1-8 3-11.1-.1l-21.4-21.9c-3.1-3.1-3.1-8.2-.1-11.3l119.5-124.5z"/>
    <path d="M354.8 249.4L235.4 125.1c-3-3.1-2.9-8.1.1-11.3l21.4-21.9c3.1-3.1 8.1-3.2 11.1-.1l145.9 152c1.6 1.6 2.3 3.7 2.1 5.8.1 2.1-.6 4.2-2.1 5.8L268 407.2c-3 3.1-8 3-11.1-.1l-21.4-21.9c-3.1-3.1-3.1-8.2-.1-11.3l119.4-124.5z"/>
</svg>

<?xml version="1.0" encoding="UTF-8"?>
<svg width="512px" height="512px" viewBox="0 0 512 512" version="1.1" xmlns="http://www.w3.org/2000/svg" xmlns:xlink="http://www.w3.org/1999/xlink">
    <!-- Generator: Sketch 62 (91390) - https://sketch.com -->
    <title>chevron-right-double</title>
    <desc>Created with Sketch.</desc>
    <g id="chevron-right-double" stroke="none" stroke-width="1" fill="none" fill-rule="evenodd">
        <path d="M217.7,249.4 L98.2,125.1 C95.2,122 95.3,117 98.3,113.8 L119.7,91.9 C122.8,88.8 127.8,88.7 130.8,91.8 L276.7,243.8 C278.3,245.4 279,247.5 278.8,249.6 C278.9,251.7 278.2,253.8 276.7,255.4 L130.8,407.2 C127.8,410.3 122.8,410.2 119.7,407.1 L98.3,385.2 C95.2,382.1 95.2,377 98.2,373.9 L217.7,249.4 Z" id="Path" fill="#000000" fill-rule="nonzero"></path>
        <path d="M354.8,249.4 L235.4,125.1 C232.4,122 232.5,117 235.5,113.8 L256.9,91.9 C260,88.8 265,88.7 268,91.8 L413.9,243.8 C415.5,245.4 416.2,247.5 416,249.6 C416.1,251.7 415.4,253.8 413.9,255.4 L268,407.2 C265,410.3 260,410.2 256.9,407.1 L235.5,385.2 C232.4,382.1 232.4,377 235.4,373.9 L354.8,249.4 L354.8,249.4 Z" id="Path" fill="#000000" fill-rule="nonzero"></path>
    </g>
</svg>
